build/img/check.svg

<svg width="18" height="18" viewBox="0 0 18 18" fill="none" xmlns="http://www.w3.org/2000/svg">
<path d="M16 0H2C0.895 0 0 0.895 0 2V16C0 17.105 0.895 18 2 18H16C17.105 18 18 17.105 18 16V2C18 0.895 17.105 0 16 0ZM7 14L2 9L3.415 7.585L7 11.17L14.585 3.585L16 5L7 14Z" fill="#F5F5FA"/>
</svg>

<svg width="18" height="18" fill="none" xmlns="http://www.w3.org/2000/svg"><path d="M16 0H2a2 2 0 00-2 2v14a2 2 0 002 2h14a2 2 0 002-2V2a2 2 0 00-2-2zM7 14L2 9l1.415-1.415L7 11.17l7.585-7.585L16 5l-9 9z" fill="#F5F5FA"/></svg>
